src/assets/icons/category_Electronics.svg

<?xml version="1.0" encoding="UTF-8" standalone="no"?>
<svg width="38px" height="38px" viewBox="0 0 38 38" version="1.1" xmlns="http://www.w3.org/2000/svg" xmlns:xlink="http://www.w3.org/1999/xlink">
    <!-- Generator: sketchtool 41.2 (35397) - http://www.bohemiancoding.com/sketch -->
    <title>82B65557-3CB6-4111-888C-64092ED3E72F</title>
    <desc>Created with sketchtool.</desc>
    <defs></defs>
    <g id="Nav" stroke="none" stroke-width="1" fill="none" fill-rule="evenodd">
        <g id="Categories_Selected_Mobile-" transform="translate(-80.000000, -226.000000)" fill="#AEAEAE">
            <path d="M107.416667,237.75 L107.416667,236.166667 C107.416667,234.42025 105.996417,233 104.25,233 L93.1666667,233 C91.42025,233 90,234.42025 90,236.166667 L90,255.166667 C90,256.913083 91.42025,258.333333 93.1666667,258.333333 L104.25,258.333333 C105.996417,258.333333 107.416667,256.913083 107.416667,255.166667 L107.416667,244.083333 C107.853667,244.083333 108.208333,243.728667 108.208333,243.291667 L108.208333,242.5 C108.208333,242.063 107.853667,241.708333 107.416667,241.708333 L107.416667,240.125 C107.853667,240.125 108.208333,239.770333 108.208333,239.333333 L108.208333,238.541667 C108.208333,238.104667 107.853667,237.75 107.416667,237.75 Z M105.833333,255.166667 C105.833333,256.039875 105.123208,256.75 104.25,256.75 L93.1666667,256.75 C92.2934583,256.75 91.5833333,256.039875 91.5833333,255.166667 L91.5833333,236.166667 C91.5833333,235.293458 92.2934583,234.583333 93.1666667,234.583333 L104.25,234.583333 C105.123208,234.583333 105.833333,235.293458 105.833333,236.166667 L105.833333,255.166667 Z M103.458333,236.166667 L93.9583333,236.166667 C93.5213333,236.166667 93.1666667,236.521333 93.1666667,236.958333 C93.1666667,237.395333 93.5213333,237.75 93.9583333,237.75 L103.458333,237.75 C103.895333,237.75 104.25,237.395333 104.25,236.958333 C104.25,236.521333 103.895333,236.166667 103.458333,236.166667 Z M103.458333,252 L93.9583333,252 C93.5213333,252 93.1666667,252.354667 93.1666667,252.791667 C93.1666667,253.228667 93.5213333,253.583333 93.9583333,253.583333 L103.458333,253.583333 C103.895333,253.583333 104.25,253.228667 104.25,252.791667 C104.25,252.354667 103.895333,252 103.458333,252 Z M99.5,254.375 L98.7083333,254.375 C98.2713333,254.375 97.9166667,254.729667 97.9166667,255.166667 C97.9166667,255.603667 98.2713333,255.958333 98.7083333,255.958333 L99.5,255.958333 C99.937,255.958333 100.291667,255.603667 100.291667,255.166667 C100.291667,254.729667 99.937,254.375 99.5,254.375 Z" id="Combined-Shape"></path>
        </g>
    </g>
</svg>

<svg width="38" height="38" viewBox="0 0 38 38" xmlns="http://www.w3.org/2000/svg"><g id="Nav" fill="none" fill-rule="evenodd"><g id="Categories_Selected_Mobile-" transform="translate(-80 -226)" fill="#AEAEAE"><path d="M107.417 237.75v-1.583A3.17 3.17 0 0 0 104.25 233H93.167A3.17 3.17 0 0 0 90 236.167v19a3.17 3.17 0 0 0 3.167 3.166h11.083a3.17 3.17 0 0 0 3.167-3.166v-11.084a.792.792 0 0 0 .791-.791v-.792a.792.792 0 0 0-.791-.792v-1.583a.792.792 0 0 0 .791-.792v-.791a.792.792 0 0 0-.791-.792zm-1.584 17.417c0 .873-.71 1.583-1.583 1.583H93.167c-.874 0-1.584-.71-1.584-1.583v-19c0-.874.71-1.584 1.584-1.584h11.083c.873 0 1.583.71 1.583 1.584v19zm-2.375-19h-9.5a.792.792 0 0 0 0 1.583h9.5a.792.792 0 0 0 0-1.583zm0 15.833h-9.5a.792.792 0 0 0 0 1.583h9.5a.792.792 0 0 0 0-1.583zm-3.958 2.375h-.792a.792.792 0 0 0 0 1.583h.792a.792.792 0 0 0 0-1.583z" id="Combined-Shape"/></g></g></svg>
